priv/static/svgs/icons_new/other-flame.svg

<svg width="32" height="32" viewBox="0 0 32 32" fill="none" xmlns="http://www.w3.org/2000/svg">
<path d="M16 4C16 12.9772 7 13.2556 7 19.7882C7 24.3242 11.0294 28 16 28C13.2339 28 10.9913 25.954 10.9913 23.4299C10.9913 22.3893 11.4019 21.2243 11.9879 20.0915C12.4118 20.8958 12.9311 21.6552 13.5364 22.3562C13.5298 22.3209 13.5233 22.2842 13.517 22.2501C13.048 19.6228 13.8776 16.9403 15.7559 14.9034C15.9106 14.7354 16 14.6438 16 14.6438C16 19.6396 21.0084 19.7946 21.0084 23.4299C21.0084 25.954 18.7661 28 16 28C20.9714 28 25 24.3234 25 19.7882C25 17.9178 24.2622 15.8246 23.2093 13.7882C22.4477 15.2338 21.5146 16.5987 20.4266 17.8586C20.4387 17.7946 20.4504 17.731 20.4616 17.668C21.3046 12.947 19.8137 8.1268 16.4387 4.468C16.1605 4.16632 16 4.0012 16 4.0012" stroke="black" stroke-linecap="round" stroke-linejoin="round"/>
</svg>

<svg width="32" height="32" viewBox="0 0 32 32" fill="none" xmlns="http://www.w3.org/2000/svg">
  <symbol id="item" viewBox="0 0 32 32" stroke-width="1" fill="none">
    <path d="M16 4c0 8.977-9 9.256-9 15.788C7 24.324 11.03 28 16 28c-2.766 0-5.009-2.046-5.009-4.57 0-1.04.41-2.206.997-3.338.424.804.943 1.563 1.548 2.264l-.019-.106c-.469-2.627.36-5.31 2.239-7.347.155-.168.244-.26.244-.26 0 4.997 5.008 5.152 5.008 8.787 0 2.524-2.242 4.57-5.008 4.57 4.971 0 9-3.677 9-8.212 0-1.87-.738-3.963-1.79-6a21.723 21.723 0 0 1-2.783 4.07l.035-.19c.843-4.721-.648-9.541-4.023-13.2A27.143 27.143 0 0 0 16 4.001" stroke="currentColor" stroke-linecap="round" stroke-linejoin="round"/>
  </symbol>
</svg>
